flaticon/constructions/knife.svg

<svg xmlns="http://www.w3.org/2000/svg" width="32" height="32" viewBox="0 0 24 24">
    <path d="M 11.402344 4.054688 C 11.242188 4.175781 11.160156 4.417969 11.242188 4.617188 C 11.71875 5.496094 12 6.574219 12 7.613281 L 12 11.609375 C 12 11.851562 12.160156 12.011719 12.398438 12.011719 C 12.640625 12.011719 12.800781 11.851562 12.800781 11.609375 L 12.800781 7.613281 C 12.800781 6.453125 12.519531 5.253906 11.960938 4.214844 C 11.839844 4.015625 11.601562 3.976562 11.402344 4.054688 Z M 11.402344 4.054688"/>
    <path d="M 15.558594 13.007812 C 15.476562 12.890625 15.355469 12.808594 15.199219 12.808594 L 14.398438 12.808594 L 14.398438 7.492188 C 14.398438 4.457031 12.800781 1.617188 10.203125 0.0585938 C 10.082031 -0.0195312 9.921875 -0.0195312 9.800781 0.0585938 C 9.683594 0.140625 9.601562 0.261719 9.601562 0.417969 L 9.601562 12.808594 L 8.800781 12.808594 C 8.683594 12.808594 8.523438 12.890625 8.441406 13.007812 C 8.363281 13.128906 8.363281 13.289062 8.441406 13.410156 C 9.203125 14.648438 9.601562 16.085938 9.601562 17.523438 L 9.601562 21.601562 C 9.601562 22.921875 10.679688 24 12 24 C 13.320312 24 14.398438 22.921875 14.398438 21.601562 L 14.398438 17.523438 C 14.398438 16.085938 14.796875 14.648438 15.558594 13.410156 C 15.636719 13.289062 15.636719 13.128906 15.558594 13.007812 Z M 10.402344 1.179688 C 12.398438 2.65625 13.597656 5.015625 13.597656 7.492188 L 13.597656 12.808594 L 10.402344 12.808594 Z M 13.597656 17.527344 L 13.597656 21.601562 C 13.597656 22.480469 12.878906 23.199219 12 23.199219 C 11.121094 23.199219 10.402344 22.480469 10.402344 21.601562 L 11.199219 21.601562 C 11.441406 21.601562 11.601562 21.441406 11.601562 21.203125 C 11.601562 20.960938 11.441406 20.800781 11.199219 20.800781 L 10.402344 20.800781 L 10.402344 20.003906 L 11.199219 20.003906 C 11.441406 20.003906 11.601562 19.84375 11.601562 19.605469 C 11.601562 19.363281 11.441406 19.203125 11.199219 19.203125 L 10.402344 19.203125 L 10.402344 17.527344 C 10.402344 16.167969 10.082031 14.808594 9.480469 13.609375 L 14.519531 13.609375 C 13.917969 14.808594 13.597656 16.167969 13.597656 17.527344 Z M 13.597656 17.527344"/>
</svg>

<svg xmlns="http://www.w3.org/2000/svg" width="32" height="32" viewBox="0 0 24 24">
    <path d="M11.402 4.055c-.16.12-.242.363-.16.562.477.88.758 1.957.758 2.996v3.996c0 .243.16.403.398.403.243 0 .403-.16.403-.403V7.613c0-1.16-.281-2.36-.84-3.398-.121-.2-.36-.238-.559-.16zm0 0"/>
    <path d="M15.559 13.008a.432.432 0 0 0-.36-.2h-.8V7.493A8.688 8.688 0 0 0 10.202.06a.375.375 0 0 0-.402 0 .432.432 0 0 0-.2.359v12.39h-.8a.492.492 0 0 0-.36.2.375.375 0 0 0 0 .402 7.882 7.882 0 0 1 1.16 4.113v4.079A2.404 2.404 0 0 0 12 24a2.404 2.404 0 0 0 2.398-2.398v-4.079c0-1.437.399-2.875 1.16-4.113a.375.375 0 0 0 0-.402zM10.402 1.18a7.892 7.892 0 0 1 3.196 6.312v5.317h-3.196zm3.196 16.347v4.075c0 .878-.72 1.597-1.598 1.597a1.602 1.602 0 0 1-1.598-1.597h.797c.242 0 .403-.16.403-.399 0-.242-.16-.402-.403-.402h-.797v-.797h.797c.242 0 .403-.16.403-.399 0-.242-.16-.402-.403-.402h-.797v-1.676c0-1.359-.32-2.718-.922-3.918h5.04a8.795 8.795 0 0 0-.922 3.918zm0 0"/>
</svg>
